X:234
T: ES WOLLT  EIN MAEGDLEIN WASSER HOLN
N: E0117A
O: Europa, Mitteleuropa, Deutschland, Vogelsberg, Rabenau
R: erzaehlendes Volks - Lied, Schalk -, Schelmen - Lied, Liebe
M: 2/4
L: 1/16
K: A
E2 | A3EC2E2 | A3AA2
c2 | B3cB2A2 | G2F2E2
e2 | d3fB2d2 | c3eA2
c2 | B3Bd2B2 | B2A2A2
e2 | d3fB2d2 | c3eA2
c2 | B3Bd2B2 | B2A2A2

@@@ Tune index: 3884
